!!!id: BC016
!!!page: 24
!!!COM: Anonymous
!!!LYR: Burque, F.-X., ptre
!!!PTL@@FR: Les 100 plus belles chansons
!!!OTL@@FR: Vive la Canadienne
!!!PUB:La Bonne Chanson, inc.
!!!YEM: On ne peut reproduire, enregistrer ou diffuser en tout ou en partie le présent ouvrage, sous quelque procédé que ce soit, électronique, mécanique, photographique, sonore, magnétique ou autre, sans avoir obtenu au préalable l'autorisation écrite de l'éditrice.
!!!PDT: 2011
!!!SMA:2012 Bibliothèque nationale du Québec; Biblothèque nationale du Canada
!!!AGN-Laforte: Chanson en laisse (with refrain), 10:1(6+6)
!!!AGN-type: Anthem
!!!AGN-rime: suivies (aRb)
!!!REF: https://www.thecanadianencyclopedia.ca/fr/article/vive-la-canadienne
**kern	**text	**text	**text	**text	**text	**text	**text	**text	**text	**text
*clefG2	*	*	*	*	*	*	*	*	*	*
*k[b-,e-,a-]	*	*	*	*	*	*	*	*	*	*
*E-:	*	*	*	*	*	*	*	*	*	*
*M2/4	*	*	*	*	*	*	*	*	*	*
*	*v:1	*v:2	*v:3	*v:4	*v:5	*v:6	*v:7	*v:8	*v:9	*v:10
*	*pline:1	*pline:2	*pline:3	*pline:4	*pline:5	*pline:6	*pline:7	*pline:8	*pline:9	*pline:10
=1	=1	=1	=1	=1	=1	=1	=1	=1	=1	=1
!!LO:TX:a:i:t=Avec fierté
!	!	!elision not in original	!	!	!	!	!	!	!	!
{8b-	Vi-	Ell'	El-	C'est	Que	.	.	.	.	.
16b-	-ve	est	-le	à	d'en-	.	.	.	.	.
16b-	la	vrai-	ra-	qui	-fants	.	.	.	.	.
!	!	!	!elision not in original	!	!	!	!	!	!	!
8b-	Ca-	-ment	yonn'	la	el-	.	.	.	.	.
8ee-	-na-	chré-	et	ma-	-le	.	.	.	.	.
=2	=2	=2	=2	=2	=2	=2	=2	=2	=2	=2
(8.b-L	-dien-	tien-	bril-	ri-	don-	.	.	.	.	.
16a-J)	.	.	.	.	.	.	.	.	.	.
8g	-ne,	-ne,	-le,	e,	-ne,	.	.	.	.	.
8r}	.	.	.	.	.	.	.	.	.	.
=3	=3	=3	=3	=3	=3	=3	=3	=3	=3	=3
*	*refrain	*refrain	*refrain	*refrain	*refrain	*refrain	*refrain	*refrain	*refrain	*refrain
*	*italic	*	*	*	*	*	*	*	*	*
{8.e-	Vo-	.	.	.	.	.	.	.	.	.
16f	-le,	.	.	.	.	.	.	.	.	.
8g	mon	.	.	.	.	.	.	.	.	.
8b-	coeur,	.	.	.	.	.	.	.	.	.
!!LO:PB:g=original
=4	=4	=4	=4	=4	=4	=4	=4	=4	=4	=4
*	*bis	*	*	*	*	*	*	*	*	*
(16b-L	vo-	.	.	.	.	.	.	.	.	.
16a-	.	.	.	.	.	.	.	.	.	.
16g	.	.	.	.	.	.	.	.	.	.
16a-J)	.	.	.	.	.	.	.	.	.	.
8f	-le,	.	.	.	.	.	.	.	.	.
*	*Xbis	*	*	*	*	*	*	*	*	*
8r}	.	.	.	.	.	.	.	.	.	.
=5	=5	=5	=5	=5	=5	=5	=5	=5	=5	=5
*	*Xitalic	*	*	*	*	*	*	*	*	*
*	*Xrefrain	*Xrefrain	*Xrefrain	*Xrefrain	*Xrefrain	*Xrefrain	*Xrefrain	*Xrefrain	*Xrefrain	*Xrefrain
*	*bis	*bis	*bis	*bis	*bis	*bis	*bis	*bis	*bis	*bis
!	!	!elision not in original	!	!	!	!	!	!	!	!
{8b-	Vi-	Ell'	El-	C'est	Que	.	.	.	.	.
16b-	-ve	est	-le	à	d'en-	.	.	.	.	.
16b-	la	vrai-	ra-	qui	-fants	.	.	.	.	.
!	!	!	!elision not in original	!	!	!	!	!	!	!
8b-	Ca-	-ment	yonn'	la	el-	.	.	.	.	.
8e-	-na-	chré-	et	ma-	-le	.	.	.	.	.
=6	=6	=6	=6	=6	=6	=6	=6	=6	=6	=6
(8.b-L	-dien-	tien-	bril-	-ri-	don-	.	.	.	.	.
16a-J)	.	.	.	.	.	.	.	.	.	.
8g	-ne	-ne,	le,	e,	-ne,	.	.	.	.	.
*	*Xbis	*Xbis	*Xbis	*Xbis	*Xbis	*Xbis	*Xbis	*Xbis	*Xbis	*Xbis
8e-	Et	Tré-	A-	Les	À	.	.	.	.	.
=7	=7	=7	=7	=7	=7	=7	=7	=7	=7	=7
8f	ses	-sor	-vec	gar-	son	.	.	.	.	.
(16gL	jo-	de	ou	-çons	jo-	.	.	.	.	.
16a-J)	.	.	.	.	.	.	.	.	.	.
8g	-lis	son	sans	en	-yeux	.	.	.	.	.
8f	yeux	é-	bi-	sont	é-	.	.	.	.	.
!!LO:PB:g=original
=8	=8	=8	=8	=8	=8	=8	=8	=8	=8	=8
!!LO:TX:a:B:t=FIN
8.e-}	doux!	poux,	-joux,	fous,	-poux,	.	.	.	.	.
*	*rp:u	*rp:u	*rp:u	*rp:u	*rp:u	*rp:u	*rp:u	*rp:u	*rp:u	*rp:u
*	*rf:u	*rf:u	*rf:u	*rf:u	*rf:u	*rf:u	*rf:u	*rf:u	*rf:u	*rf:u
*	*rs:a	*rs:a	*rs:a	*rs:a	*rs:a	*rs:a	*rs:a	*rs:a	*rs:a	*rs:a
=||	=||	=||	=||	=||	=||	=||	=||	=||	=||	=||
*	*bis	*bis	*bis	*bis	*bis	*bis	*bis	*bis	*bis	*bis
{16e-	Et	Tré-	A-	Les	À	.	.	.	.	.
8e-	ses	-sor	-vec	gar-	son	.	.	.	.	.
8g	jo-	de	ou	-çons	jo-	.	.	.	.	.
=9	=9	=9	=9	=9	=9	=9	=9	=9	=9	=9
8b-	-lis	son	sans	en	-yeux	.	.	.	.	.
8b-	yeux	é-	bi-	sont	é-	.	.	.	.	.
8b-	doux,	-poux,	-joux,	fous,	-poux,	.	.	.	.	.
8cc	doux,	-poux,	-joux,	fous,	-poux,	.	.	.	.	.
=10	=10	=10	=10	=10	=10	=10	=10	=10	=10	=10
8b-	doux,	-poux,	-joux,	fous,	-poux,	.	.	.	.	.
8a-	Et	Tré-	A-	Les	À	.	.	.	.	.
8g	ses	-sor	-vec	gar-	son	.	.	.	.	.
8a-	jo-	de	ou	-çons	jo-	.	.	.	.	.
=11	=11	=11	=11	=11	=11	=11	=11	=11	=11	=11
4b-	-lis	son	sans	en	-yeux	.	.	.	.	.
4cc	yeux	é-	bi-	sont	é-	.	.	.	.	.
!!LO:PB:g=original
=12	=12	=12	=12	=12	=12	=12	=12	=12	=12	=12
8b-	doux,	poux,	joux,	fous,	-poux,	.	.	.	.	.
16r}	.	.	.	.	.	.	.	.	.	.
{16e-	Et	Tré-	A-	Les	À	.	.	.	.	.
8e-	ses	-sor	vec	gar-	son	.	.	.	.	.
8g	jo-	de	ou	-çons	jo-	.	.	.	.	.
=13	=13	=13	=13	=13	=13	=13	=13	=13	=13	=13
8b-	-lis	son	sans	en	yeux	.	.	.	.	.
8b-	yeux	é-	bi-	sont	é-	.	.	.	.	.
8b-	doux,	-poux,	-joux,	fous,	-poux,	.	.	.	.	.
8cc	doux,	-poux,	-joux,	fous,	-poux,	.	.	.	.	.
=14	=14	=14	=14	=14	=14	=14	=14	=14	=14	=14
8b-	doux,	-poux,	-joux,	fous,	-poux,	.	.	.	.	.
8a-	Et	Tré-	A	Les	À	.	.	.	.	.
8g	ses	-sor	vec	gar-	son	.	.	.	.	.
8a-	jo-	de	ou	-çons	jo-	.	.	.	.	.
=15	=15	=15	=15	=15	=15	=15	=15	=15	=15	=15
4b-	-lis	son	sans	en	-yeux	.	.	.	.	.
4cc	yeux	é-	bi-	sont	é-	.	.	.	.	.
=16	=16	=16	=16	=16	=16	=16	=16	=16	=16	=16
4.b-	doux!	-poux!	joux!	fous!	-poux!	.	.	.	.	.
*	*Xbis	*Xbis	*Xbis	*Xbis	*Xbis	*Xbis	*Xbis	*Xbis	*Xbis	*Xbis
8r}	.	.	.	.	.	.	.	.	.	.
==	==	==	==	==	==	==	==	==	==	==
*-	*-	*-	*-	*-	*-	*-	*-	*-	*-	*-
